X: 2121
T: Ömrümüzün Son Saati Çalmadan
C: Avni Anıl
O: Turkey
F: http://compmusic.upf.edu/node/140
N: huzzam--sarki--semai--omrumuzun_son_saati--avni_anil
N: makam= huzzam
N: form= sarki
N: usul= semai = 3/4
M: 3/4
L: 1/16
K: C _1/4B _3/4e ^3/4f 
Q: 1/4=138
%%MIDI tuningsystem comma53
d4 d4 d4  | d12  | d4 e4 f4  | g12  | g6f3e3  | d12  | \
w:  Öm rü mü  |  zün   |   |   |  son  sa a  |  ti   | 
d8 c4  | d2e2 d2c2 c2B2  | B12  | 
w:  çal ma  |  dan   |  gel    | 
B8 z4  | a8 g4  | _b4 a4 g4  | f4 e4 f4  | d12  | \
w:   |  Gel   |   |   |   | 
d8 z4  | f4 e4 f4  | d12  | d8 z4  | d2c2 d2e2 f2g2  | 
w:  gel   |  ne  o  |  lur    |   |  SAZ  | 
f4 e4 d4  | d2e2 d2c2 c2B2  | B12  | d4 d4 d4  | d12  | \
w:   |  SAZ  |   |  Öm rü mü  |  zün   | 
d4 e4 f4  | g12  | g6f3e3  | 
w:   |   |  son  sa a  | 
d12  | d8 c4  | d2e2 d2c2 c2B2  | B12  | B8 z4  | \
w:  ti   |  çal ma  |  dan   |  gel    |   | 
a8 g4  | _b4 a4 g4  | f4 e4 f4  | d12  | 
w:  Gel   |   |   |   | 
d8 z4  | f4 e4 f4  | d12  | d8 z4  | d2c2 d2e2 f2g2  | \
w:  gel   |  ne  o  |  lur    |   |  SAZ  | 
f4 e4 d4  | g4 f4 a2g2  | 
w:   |  SAZ  | 
g12  | g12  | g12  | g4 f4 g4  | f4 e4 d4  | f4 e8  | e12  | \
w:   |  Sen  |  siz   |  yo ru  |  lan   |  şu  kal  |  bim   | 
e8 e4  | d2e2 f4 e2d2  | d12  | d8 z4  | 
w:  dur ma  |  dan   |  gel    |   | 
c'8 _b2a2  | d'4 c'4 _b4  | a4 g4 f4  | \
w:  Gel   |   |   | 
e4 d8  | d2e2 d4 c4  | d2e2 d2c2 c2B2  | 
w:   |  gel   |  ne  *  o  | 
B12  | B8 z4  | d2c2 d2e2 f2g2  | f4 e4 d4  | \
w:  lur    |   |  SAZ  |   | 
g4 f4 a4  | g12  | g12  | g12  | g4 f4 g4  | 
w:  SAZ  |   |  Sen  |  siz   |  yo ru  | 
f4 e4 d4  | f4 e8  | e12  | e8 e4  | d2e2 f4 e2d2  | d12  | \
w:  lan   |  şu  kal  |  bim   |  dur ma  |  dan   |  gel    | 
d8 z4  | c'8 _b2a2  | d'4 c'4 _b4  | 
w:   |  Gel   |   | 
a4 g4 f4  | e4 d8  | d2e2 d4 c4  | d2e2 d2c2 c2B2  | B12  | \
w:   |   |  gel   |  ne  *  o  |  lur    | 
B8 z4  | d2c2 d2e2 f2g2  | 
w:   |  SAZ  | 
f4 e4 d4  | b4 ^a4 c'2b2  | b12  | b4 b8  | b12  | \
w:   |  SAZ  |   |  Ya şa  |  mak   | 
^a4 b4 c'4  | b4 ^a4 g4  | g8 g4  | g4 g8  | 
w:   |   |  ez gi  |  si ni   | 
f2g2 a4 g2f2  | e2f2 g4 f2e2  | d2e2 f4 e2d2  | d12  | b12  | \
w:   |   |   |   |  sev  | 
b8 d'4  | c'4 b4 a4  | 
w:  dâ  |  mız  | 
g4 f4 _1/4e4  | _1/4e6e2 e4  | _1/4e12  | \
w:  la   |  söy le ye  |  lim   | 
g4 f4 a4  | g12  | d2c2 d2e2 f2g2  | f4 e4 d4  | \
w:  söy le ye  |  lim   |  SAZ  |   | 
b4 ^a4 c'2b2  | 
w:  SAZ  | 
b12  | b4 b8  | b12  | ^a4 b4 c'4  | b4 ^a4 g4  | \
w:   |  Ya şa  |  mak   |   |   | 
g8 g4  | g4 g8  | f2g2 a4 g2f2  | e2f2 g4 f2e2  | 
w:  ez gi  |  si ni   |   |   | 
d2e2 f4 e2d2  | d12  | b12  | b8 d'4  | c'4 b4 a4  | \
w:   |   |  sev  |  dâ  |  mız  | 
g4 f4 _1/4e4  | _1/4e6e2 e4  | _1/4e12  | \
w:  la   |  söy le ye  |  lim   | 
g4 f4 a4  | 
w:  söy le ye  | 
g12  | d2c2 d2e2 f2g2  | f4 e4 d4  | g4 f4 a2g2  | g12  | g12  | g12  | \
w:  lim   |  SAZ  |   |  SAZ  |   |  Hâ  |  lâ   | 
g4 f4 g4  | f2e2 e2f2 e2d2  | 
w:  se vi yor   |  mu  *  *  *  di  | 
d12  | d8 z4  | e8 e4  | d2e2 f4 e2d2  | d12  | \
w:  ye   |   |  sor ma  |  dan   |  gel    | 
d8 z4  | c'8 _b2a2  | d'4 c'4 _b4  | a4 g4 f4  | 
w:   |  Gel   |   |   | 
e4 d8  | d2e2 d4 c4  | d2e2 d2c2 c2B2  | B12  | \
w:   |  gel   |  ne  *  o  |  lur    | 
B8 z4  | d2c2 d2e2 f2g2  | 
w:   |  SAZ  | 
f4 e4 d4  | g4 f4 a4  | g12  | g12  | g12  | g4 f4 g4  | \
w:   |   |   |  Hâ  |  lâ   |  se vi yor   | 
f2e2 e2f2 e2d2  | d12  | d8 z4  | 
w:  mu  *  *  *  di  |  ye   |   | 
e8 e4  | d2e2 f4 e2d2  | d12  | d8 z4  | c'8 _b2a2  | \
w:  sor ma  |  dan   |  gel    |   |  Gel   | 
d'4 c'4 _b4  | a4 g4 f4  | e4 d8  | 
w:   |   |   | 
d2e2 d4 c4  | d2e2 d2c2 c2B2  | B12  | B8 z4  | |


